X:240
T:Pat Touhy's reel
R:Reel
O:Ireland
B:O'Neill's 1340
B:Krassen O'Neill's p122
S:My arrangement from sources above
Z:Transcription, arrangement, chords:Mike Long
M:C|
L:1/8
K:G
"Em"BE~E2 BAFE|"D"D2 (3(FED) ADFD|"Em"BE~E2 "G"BAFA|\
[1 "A"(3(B^cd) eg fded:|[2 "A"(3(B^cd) eg "(Em)"fde2|]
"Em"e2(3(gfe) Bege|"D"defg agfg|\
"Em"e2 (3(gfe) "G"bege|"D"defa geed|
"Em"e2 (3(gfe) Bege|"D"defg a2ga|"G"(3(bag) af gefd|"A"(3(B^cd) eg fde2|]
